assets/images/icons/src/folder-o.svg

<?xml version="1.0" encoding="utf-8"?>
<!-- Generated by IcoMoon.io -->
<!DOCTYPE svg PUBLIC "-//W3C//DTD SVG 1.1//EN" "http://www.w3.org/Graphics/SVG/1.1/DTD/svg11.dtd">
<svg version="1.1" xmlns="http://www.w3.org/2000/svg" xmlns:xlink="http://www.w3.org/1999/xlink" width="13" height="14" viewBox="0 0 13 14">
<path fill="#444444" d="M12 10.25v-5.5q0-0.312-0.219-0.531t-0.531-0.219h-5.5q-0.312 0-0.531-0.219t-0.219-0.531v-0.5q0-0.312-0.219-0.531t-0.531-0.219h-2.5q-0.312 0-0.531 0.219t-0.219 0.531v7.5q0 0.312 0.219 0.531t0.531 0.219h9.5q0.312 0 0.531-0.219t0.219-0.531zM13 4.75v5.5q0 0.719-0.516 1.234t-1.234 0.516h-9.5q-0.719 0-1.234-0.516t-0.516-1.234v-7.5q0-0.719 0.516-1.234t1.234-0.516h2.5q0.719 0 1.234 0.516t0.516 1.234v0.25h5.25q0.719 0 1.234 0.516t0.516 1.234z"></path>
</svg>

<svg xmlns="http://www.w3.org/2000/svg" width="13" height="14" viewBox="0 0 13 14"><path fill="#444" d="M12 10.25v-5.5q0-.312-.219-.531T11.25 4h-5.5q-.312 0-.531-.219T5 3.25v-.5q0-.312-.219-.531T4.25 2h-2.5q-.312 0-.531.219T1 2.75v7.5q0 .312.219.531T1.75 11h9.5q.312 0 .531-.219T12 10.25zm1-5.5v5.5q0 .719-.516 1.234T11.25 12h-9.5q-.719 0-1.234-.516T0 10.25v-7.5q0-.719.516-1.234T1.75 1h2.5q.719 0 1.234.516T6 2.75V3h5.25q.719 0 1.234.516T13 4.75z"/></svg>
